X:250
T:Miss Thornton's Reel
M:C|
L:1/8
Q:120
R:Reel (Key of G)
K:G
"G"G2Bd gdBd | "C"cBAB cedc | "G"BGAF GBdg | "C"ecAF "D"GFED |
"G"G2Bd gdBd | "C"cBAB cedc | "G"BGAF GBdg | "D"ecAF "G"G2z2 :|:
"G"b2agb2ag | "C"egdg egdg | "G"b2agb2ag | "C"egfa "D"gfga |
"G"bgag bgag | "C"egdg egdg | "G"bgaf gfed | "D"egfa "G"gedB :|]
